!!!!SEGMENT: pl-kk--kk-i-7--020_anonim--benedictus.krn
!!!cenid: 16xx:810
!!!COM: Anonim
!!!COM-rismid: pe30004985
!!!CDT:
!!!CNT:
!!!OTL: Benedictus
!!!PDT:
!!!AGN: Sacred
!!!SMS-siglum: PL-Kk
!!!SMS-shelfmark: Kk.I.7
!!!SMS-shelfwork: 020 W
!!!SMS-variant:
!!!SMS-altvar:
!!!NIFC-rismid: 300258097
!!!URL-scan: http://repozytorium.nifc.pl/skany/pl-kk-nut--i-7
!!!ONB-nifc: UWAGA: C (skan 0014, s.22), A (0101, s.22), T (0177, s.18), B (0266, s.22-23). Następny utwór: Agnus Dei
**kern	**text	**kern	**text	**kern	**text	**kern	**text
*part4	*part4	*part3	*part3	*part2	*part2	*part1	*part1
*staff4	*staff4	*staff3	*staff3	*staff2	*staff2	*staff1	*staff1
*I"[BASSVS.]	*	*I"[TENOR.]	*	*I"[ALTVS.]	*	*I"[CANTVS.]	*
*I'[B]	*	*I'[T]	*	*I'[A]	*	*I'[S]	*
*clefF4	*	*clefC4	*	*clefC4	*	*clefC3	*
*k[b-]	*	*k[b-]	*	*k[b-]	*	*k[b-]	*
*M2/1	*	*M2/1	*	*M2/1	*	*M2/1	*
*met(c|)	*	*met(c|)	*	*met(c|)	*	*met(c|)	*
=1-	=1-	=1-	=1-	=1-	=1-	=1-	=1-
*all\right	*	*all\right	*	*all\right	*	*all\right	*
*	*	*	*	*2\right	*	*2\right	*
1F	Be-	1f	BE-	2.c\	BE-	2.f\	Be-
!	!	!	!	!LO:TX:t=P:problem:kreska pseudotaktowa	!	!LO:TX:t=P:problem:kreska pseudotaktowa	!
.	.	.	.	4B-\	.	4e\	.
*2\right	*	*lig	*	*	*	*	*
2.F\	-ne-	1f	-ne-	4A/	.	2d\	.
.	.	.	.	4G/	.	.	.
.	.	.	.	4A/	.	4c/	.
!LO:TX:t=P:problem:kreska pseudotaktowa	!	!	!	!LO:TX:t=P:problem:kreska pseudotaktowa	!	!LO:TX:t=P:problem:kreska pseudotaktowa	!
4E\	.	.	.	4B-\	.	4d\	.
=2-	=2-	=2-	=2-	=2-	=2-	=2-	=2-
4C/	.	1e	.	2.c\	-ne-	4e\	.
4D/	.	.	.	.	.	4f\	.
!	!	!	!	!	!	!LO:TX:t=P:problem:kreska pseudotaktowa	!
4E\	.	.	.	.	.	2.g\	.
!LO:TX:t=P:problem:kreska pseudotaktowa	!	!	!	!LO:TX:t=P:problem:kreska pseudotaktowa	!	!	!
4F\	.	.	.	4B-\	.	.	.
*	*	*Xlig	*	*	*	*	*
*	*	*lig	*	*	*	*	*
2.G\	.	1d	.	4G/	.	.	.
.	.	.	.	4A/	.	4f\	.
!	!	!	!	!LO:TX:t=P:problem:kreska pseudotaktowa	!	!	!
.	.	.	.	2B-\	.	2.d\	.
!LO:TX:t=P:problem:kreska pseudotaktowa	!	!	!	!	!	!	!
4F\	.	.	.	.	.	.	.
=3-	=3-	=3-	=3-	=3-	=3-	=3-	=3-
2.D/	.	1f	.	2A/	.	.	.
.	.	.	.	.	.	4e\	.
!	!	!	!	!	!	!LO:TX:t=P:problem:kreska pseudotaktowa	!
.	.	.	.	2F/	.	2.f\	.
!LO:TX:t=P:problem:kreska pseudotaktowa	!	!	!	!	!	!	!
4E\	.	.	.	.	.	.	.
*	*	*Xlig	*	*	*	*	*
2.F\	.	1c	-di-	1A	-di-	.	.
.	.	.	.	.	.	4e\	.
.	.	.	.	.	.	4c/	.
!LO:TX:t=P:problem:kreska pseudotaktowa	!	!	!	!	!	!LO:TX:t=P:problem:kreska pseudotaktowa	!
4E\	.	.	.	.	.	4d\	.
=4-	=4-	=4-	=4-	=4-	=4-	=4-	=4-
4C/	.	1c	-ctus	2G/	-ctus	4e\	.
4D/	.	.	.	.	.	4f\	.
!LO:TX:t=P:problem:kreska pseudotaktowa	!	!	!	!	!	!	!
2E\	.	.	.	1c	Be-	4g\	.
!	!	!	!	!	!	!LO:TX:t=P:problem:kreska pseudotaktowa	!
.	.	.	.	.	.	4e\	.
1D	-di-	1d	.	.	.	1f	.
!	!	!	!	!LO:TX:t=P:problem:kreska pseudotaktowa	!	!	!
.	.	.	.	2B-\	-ne-	.	.
=5-	=5-	=5-	=5-	=5-	=5-	=5-	=5-
!LO:TX:t=P:problem:kreska pseudotaktowa	!	!	!	!	!	!	!
*	*	*lig	*	*	*	*	*
1C	-ct(us)	1e	.	2c\	.	2e\	.
!	!	!	!	!	!	!LO:TX:t=P:problem:kreska pseudotaktowa	!
.	.	.	.	2G/	.	2c/	-ne-
!	!	!LO:TX:t=P:problem:kreska pseudotaktowa	!	!	!	!	!
2r	.	1f	.	2B-\	.	2d\	-di-
!LO:TX:t=P:problem:kreska pseudotaktowa	!	!	!	!LO:TX:t=P:problem:kreska pseudotaktowa	!	!LO:TX:t=P:problem:kreska pseudotaktowa	!
2F\	qui	.	.	2A/	.	2c/	-ctus
*	*	*Xlig	*	*	*	*	*
=6-	=6-	=6-	=6-	=6-	=6-	=6-	=6-
1D	Ve-	1A	qui	1d	-di-	1f	qui
!LO:TX:t=P:problem:kreska pseudotaktowa	!	!	!	!LO:TX:t=P:problem:kreska pseudotaktowa	!	!	!
1C	.	1c	Ve-	1G	-ctus	2e\	.
.	.	.	.	.	.	1c\	Ve-
=7-	=7-	=7-	=7-	=7-	=7-	=7-	=7-
*	*	*lig	*	*	*	*	*
1G	.	1d	.	2r	.	.	.
!	!	!	!	!LO:TX:t=P:problem:kreska pseudotaktowa	!	!LO:TX:t=P:problem:kreska pseudotaktowa	!
.	.	.	.	2G/	qui	2B-/	.
4C/	.	1e	.	2.G/	Ve-	2.c/	.
4D/	.	.	.	.	.	.	.
4E\	.	.	.	.	.	.	.
!LO:TX:t=P:problem:kreska pseudotaktowa	!	!	!	!LO:TX:t=P:problem:kreska pseudotaktowa	!	!	!
4F\	.	.	.	4A/	.	8B-/L	.
!	!	!	!	!	!	!LO:TX:t=P:problem:kreska pseudotaktowa	!
.	.	.	.	.	.	8A/J	.
*	*	*Xlig	*	*	*	*	*
=8-	=8-	=8-	=8-	=8-	=8-	=8-	=8-
*	*	*lig	*	*	*	*	*
2G\	.	1d	.	4B-\	.	2G/	.
.	.	.	.	4A\	.	.	.
4GG/	.	.	.	4B-\	.	2.g\	.
!LO:TX:t=P:problem:kreska pseudotaktowa	!	!	!	!	!	!	!
4AA/	.	.	.	4c\	.	.	.
!	!	!	!	!LO:TX:t=P:problem:kreska pseudotaktowa	!	!	!
4BB-/	.	1B-	.	1d	.	.	.
!	!	!	!	!	!	!LO:SIC:v:t=custos f	!
4C/	.	.	.	.	.	4f\	.
!LO:TX:t=P:problem:kreska pseudotaktowa	!	!	!	!	!	!	!
2D/	.	.	.	.	.	1f\	.
*	*	*Xlig	*	*	*	*	*
=9-	=9-	=9-	=9-	=9-	=9-	=9-	=9-
!LO:TX:t=P:problem:kreska pseudotaktowa	!	!	!	!	!	!	!
!LO:SIC:v:t=custos FF	!	!LO:TX:t=P:problem:kreska pseudotaktowa	!	!	!	!	!
1C	.	1c	-nit	2G/	-nit	.	.
!	!	!	!	!LO:TX:t=P:problem:kreska pseudotaktowa	!	!	!
!	!	!	!	!LO:SIC:v:t=custos c	!	!LO:TX:t=P:problem:kreska pseudotaktowa	!
.	.	.	.	2c\	in	2e\	-nit
!LO:PB:g=original	!	!	!	!LO:LB:g=original	!	!	!
2FF/	.	1f	in	1.c	no-	1f	.
!LO:TX:t=P:problem:kreska pseudotaktowa	!	!	!	!	!	!	!
2F\	-nit	.	.	.	.	.	.
=10-	=10-	=10-	=10-	=10-	=10-	=10-	=10-
*	*	*lig	*	*	*	*	*
1.F	in	1f	no-	.	.	2r	.
!	!	!	!	!LO:TX:t=P:problem:kreska pseudotaktowa	!	!LO:TX:t=P:problem:kreska pseudotaktowa	!
.	.	.	.	2B-\	-mi-	2f\	in
.	.	1c	.	2A/	-ne	1.f	no-
2E\	.	.	.	2G/	.	.	.
*	*	*Xlig	*	*	*	*	*
=11-	=11-	=11-	=11-	=11-	=11-	=11-	=11-
2D/	no-	1A	-mi-	2F/	Do-	.	.
!LO:TX:t=P:problem:kreska pseudotaktowa	!	!	!	!LO:TX:t=P:problem:kreska pseudotaktowa	!	!LO:TX:t=P:problem:kreska pseudotaktowa	!
2C/	-mi-	.	.	2C/	.	2e\	-mi-
!	!	!LO:TX:t=P:problem:kreska pseudotaktowa	!	!	!	!	!
2BB-/	-ne	1F	-ne	2D/	.	2d\	-ne
!LO:TX:t=P:problem:kreska pseudotaktowa	!	!	!	!	!	!	!
2AA/	.	.	.	1F/	.	2c/	.
=12-	=12-	=12-	=12-	=12-	=12-	=12-	=12-
2.GG/	Do-	1G	Do-	.	.	2B-/	.
!	!	!	!	!	!	!LO:TX:t=P:problem:kreska pseudotaktowa	!
.	.	.	.	4E/	.	2A/	.
!LO:TX:t=P:problem:kreska pseudotaktowa	!	!	!	!LO:TX:t=P:problem:kreska pseudotaktowa	!	!	!
4FF/	.	.	.	4D/	.	.	.
*	*	*lig	*	*	*	*	*
1GG	-mi-	1B-	.	2E/	.	1G	Do-
.	.	.	.	2E/	.	.	.
=13-	=13-	=13-	=13-	=13-	=13-	=13-	=13-
2FF/	-ni	1A	.	4F/	.	2.c/	.
.	.	.	.	4G/	.	.	.
*	*ij	*	*	*	*	*	*
!LO:TX:t=P:problem:kreska pseudotaktowa	!	!	!	!	!	!	!
2F\	in	.	.	4A/	.	.	.
!	!	!	!	!LO:TX:t=P:problem:kreska pseudotaktowa	!	!LO:TX:t=P:problem:kreska pseudotaktowa	!
.	.	.	.	4B-\|	.	4d\	.
*	*	*Xlig	*	*	*	*	*
*	*	*lig	*	*	*	*	*
2E\	no-	1G	.	4c\	.	4e\	.
.	.	.	.	4d\	.	4f\	.
2C/	-mi-	.	.	2e\	.	2.g\	.
=14-	=14-	=14-	=14-	=14-	=14-	=14-	=14-
!LO:TX:t=P:problem:kreska pseudotaktowa	!	!	!	!	!	!	!
1F	-ne	1A	.	2d\	.	.	.
.	.	.	.	.	.	4f\	.
!	!	!	!	!LO:TX:t=P:problem:kreska pseudotaktowa	!	!	!
.	.	.	.	2c\	.	1f	-mi-
*	*	*Xlig	*	*	*	*	*
2.C/	Do-	1G	-mi-	2c\	-mi-	.	.
!	!	!	!	!	!	!LO:TX:t=P:problem:kreska pseudotaktowa	!
.	.	.	.	2G/	-ni	2e\	-ni
!LO:TX:t=P:problem:kreska pseudotaktowa	!	!	!	!	!	!	!
4C/	-mi-	.	.	.	.	.	.
=15-	=15-	=15-	=15-	=15-	=15-	=15-	=15-
*	*	*	*	*	*ij	*	*
!	!	!	!	!	!	!LO:TX:t=P:problem:kreska pseudotaktowa	!
2FF/	-ni	[0Fl;	ni.	2c\	in	1f	.
!LO:TX:t=P:problem:kreska pseudotaktowa	!	!	!	!LO:TX:t=P:problem:kreska pseudotaktowa	!	!	!
2FF/	in	.	.	2A/	no-	.	.
2BB-/	no-	.	.	2F/	-mi-	2r	.
*	*	*	*	*	*	*	*ij
!LO:TX:t=P:problem:kreska pseudotaktowa	!	!	!	!	!	!LO:TX:t=P:problem:kreska pseudotaktowa	!
2AA/	-mi-	.	.	1A\	-ne	2c/	in
=16-	=16-	=16-	=16-	=16-	=16-	=16-	=16-
2FF/	-ne	0F_	.	.	.	2f\	no-
!LO:TX:t=P:problem:kreska pseudotaktowa	!	!	!	!LO:TX:t=P:problem:kreska pseudotaktowa	!	!LO:TX:t=P:problem:kreska pseudotaktowa	!
2BB-/	Do-	.	.	2B-\	Do-	2d\	-mi-
2AA/	-mi-	.	.	2c\	.	2c/	-ne
1BB-/	.	.	.	2F/	.	1d\	Do-
=17-	=17-	=17-	=17-	=17-	=17-	=17-	=17-
.	.	0F_	.	2.B-\	.	.	.
4AA/	.	.	.	.	.	4c/	.
!LO:TX:t=P:problem:kreska pseudotaktowa	!	!	!	!	!	!LO:TX:t=P:problem:kreska pseudotaktowa	!
4GG/	.	.	.	4B-\	-mi-	4B-/	.
[1FFl	-ni	.	.	[1Al;	-ni	2c/	.
*	*Xij	*	*	*	*Xij	*	*
.	.	.	.	.	.	2d\	-mi-
=18-	=18-	=18-	=18-	=18-	=18-	=18-	=18-
!LO:TX:b:t=Osanna \nVt Supl.	!	!	!	!	!	!	!
0FF]	.	0F]	.	0A]	.	0cl;	ni
*	*	*	*	*	*	*	*Xij
==	==	==	==	==	==	==	==
*-	*-	*-	*-	*-	*-	*-	*-
!!!system-decoration: [s1,s2,s3,s4]
!!!RDF**kern: | = vertical stroke
!!!RDF**kern: l = terminal long
!!!ENC: Marta Lawrence
!!!END: 2021-03-09
!!!ENC: Katarzyna Serwa
!!!END: 2021-02-23
